packages/core/src/svgs/gg.svg

<svg width="24" height="24" viewBox="0 0 24 24" fill="none" xmlns="http://www.w3.org/2000/svg">
<g clip-path="url(#clip0_31_10744)">
<path d="M0 0H24V24H0V0Z" fill="url(#paint0_linear_31_10744)"/>
<path d="M4.28577 15.7502V10.3716L6.8572 11.7087V17.1302L4.28577 15.7502Z" fill="#5F2596"/>
<path d="M19.7143 15.7502V10.3716L17.1428 11.7087V17.1302L19.7143 15.7502Z" fill="url(#paint1_linear_31_10744)"/>
<path d="M12 14.1943L6.85718 17.1428V11.7428L12 8.8457V14.1943Z" fill="url(#paint2_linear_31_10744)"/>
<path d="M12 14.1943L17.1429 17.1428V11.7428L12 8.8457V14.1943Z" fill="#5E2693"/>
<path d="M6.8572 11.7429L4.28577 10.3629L11.9829 6L19.7143 10.3629L17.1429 11.7429L11.9958 8.87143L6.8572 11.7429Z" fill="url(#paint3_linear_31_10744)"/>
</g>
<defs>
<linearGradient id="paint0_linear_31_10744" x1="4.46571" y1="4.16143" x2="29.2071" y2="32.58" gradientUnits="userSpaceOnUse">
<stop stop-color="#1A1E21"/>
<stop offset="1" stop-color="#06060A"/>
</linearGradient>
<linearGradient id="paint1_linear_31_10744" x1="18.4285" y1="10.3716" x2="18.4285" y2="17.1302" gradientUnits="userSpaceOnUse">
<stop stop-color="#F17750"/>
<stop offset="0.36" stop-color="#E26891"/>
<stop offset="0.65" stop-color="#D45AC7"/>
<stop offset="1" stop-color="#B071D9"/>
</linearGradient>
<linearGradient id="paint2_linear_31_10744" x1="9.42861" y1="8.8457" x2="9.42861" y2="17.1428" gradientUnits="userSpaceOnUse">
<stop offset="0.06" stop-color="#EF7C3B"/>
<stop offset="0.39" stop-color="#EA6D75"/>
<stop offset="1" stop-color="#B961DC"/>
</linearGradient>
<linearGradient id="paint3_linear_31_10744" x1="12.0001" y1="6" x2="12.0001" y2="11.7429" gradientUnits="userSpaceOnUse">
<stop stop-color="#EEC985"/>
<stop offset="0.38" stop-color="#FDBD4D"/>
<stop offset="0.93" stop-color="#FCA143"/>
</linearGradient>
<clipPath id="clip0_31_10744">
<rect width="24" height="24" fill="white"/>
</clipPath>
</defs>
</svg>

<svg xmlns="http://www.w3.org/2000/svg" width="24" height="24" fill="none" viewBox="0 0 24 24"><g clip-path="url(#a)"><path fill="url(#b)" d="M0 0h24v24H0z"/><path fill="#5F2596" d="M4.286 15.75v-5.378l2.571 1.337v5.421z"/><path fill="url(#c)" d="M19.714 15.75v-5.378l-2.571 1.337v5.421z"/><path fill="url(#d)" d="m12 14.194-5.143 2.949v-5.4L12 8.846z"/><path fill="#5E2693" d="m12 14.194 5.143 2.949v-5.4L12 8.846z"/><path fill="url(#e)" d="m6.857 11.743-2.571-1.38L11.983 6l7.731 4.363-2.571 1.38-5.147-2.872z"/></g><defs><linearGradient id="b" x1="4.466" x2="29.207" y1="4.161" y2="32.58" gradientUnits="userSpaceOnUse"><stop stop-color="#1A1E21"/><stop offset="1" stop-color="#06060A"/></linearGradient><linearGradient id="c" x1="18.428" x2="18.428" y1="10.372" y2="17.13" gradientUnits="userSpaceOnUse"><stop stop-color="#F17750"/><stop offset=".36" stop-color="#E26891"/><stop offset=".65" stop-color="#D45AC7"/><stop offset="1" stop-color="#B071D9"/></linearGradient><linearGradient id="d" x1="9.429" x2="9.429" y1="8.846" y2="17.143" gradientUnits="userSpaceOnUse"><stop offset=".06" stop-color="#EF7C3B"/><stop offset=".39" stop-color="#EA6D75"/><stop offset="1" stop-color="#B961DC"/></linearGradient><linearGradient id="e" x1="12" x2="12" y1="6" y2="11.743" gradientUnits="userSpaceOnUse"><stop stop-color="#EEC985"/><stop offset=".38" stop-color="#FDBD4D"/><stop offset=".93" stop-color="#FCA143"/></linearGradient><clipPath id="a"><path fill="#fff" d="M0 0h24v24H0z"/></clipPath></defs></svg>
